modules/stroke-7/icons/album.svg

<?xml version="1.0" encoding="utf-8"?>
<!-- Generated by IcoMoon.io -->
<!DOCTYPE svg PUBLIC "-//W3C//DTD SVG 1.1//EN" "http://www.w3.org/Graphics/SVG/1.1/DTD/svg11.dtd">
<svg version="1.1" xmlns="http://www.w3.org/2000/svg" xmlns:xlink="http://www.w3.org/1999/xlink" width="29" height="32" viewBox="0 0 29 32">
<g id="icomoon-ignore">
</g>
<path d="M0 3.2v25.6h28.8v-25.6h-28.8zM1.067 4.267h2.667v23.467h-2.667v-23.467zM27.733 27.733h-22.933v-23.467h22.933v23.467z" fill="#000000"></path>
<path d="M16.533 26.133c5.6 0 10.133-4.533 10.133-10.133s-4.533-10.133-10.133-10.133c-5.6 0-10.133 4.533-10.133 10.133s4.533 10.133 10.133 10.133zM16.533 6.933c5.013 0 9.067 4.053 9.067 9.067s-4.053 9.067-9.067 9.067c-5.013 0-9.067-4.053-9.067-9.067s4.053-9.067 9.067-9.067z" fill="#000000"></path>
<path d="M16.533 19.2c1.76 0 3.2-1.44 3.2-3.2s-1.44-3.2-3.2-3.2c-1.76 0-3.2 1.44-3.2 3.2s1.44 3.2 3.2 3.2zM16.533 13.867c1.173 0 2.133 0.96 2.133 2.133s-0.96 2.133-2.133 2.133-2.133-0.96-2.133-2.133c0-1.173 0.96-2.133 2.133-2.133z" fill="#000000"></path>
<path d="M17.067 16c0 0.295-0.239 0.533-0.533 0.533s-0.533-0.239-0.533-0.533c0-0.295 0.239-0.533 0.533-0.533s0.533 0.239 0.533 0.533z" fill="#000000"></path>
</svg>

<svg xmlns="http://www.w3.org/2000/svg" width="29" height="32" viewBox="0 0 29 32"><path d="M0 3.2v25.6h28.8V3.2H0zm1.067 1.067h2.667v23.467H1.067V4.267zm26.666 23.466H4.8V4.266h22.933v23.467z"/><path d="M16.533 26.133c5.6 0 10.133-4.533 10.133-10.133S22.133 5.867 16.533 5.867C10.933 5.867 6.4 10.4 6.4 16s4.533 10.133 10.133 10.133zm0-19.2c5.013 0 9.067 4.053 9.067 9.067s-4.053 9.067-9.067 9.067c-5.013 0-9.067-4.053-9.067-9.067s4.053-9.067 9.067-9.067z"/><path d="M16.533 19.2c1.76 0 3.2-1.44 3.2-3.2s-1.44-3.2-3.2-3.2c-1.76 0-3.2 1.44-3.2 3.2s1.44 3.2 3.2 3.2zm0-5.333c1.173 0 2.133.96 2.133 2.133s-.96 2.133-2.133 2.133S14.4 17.173 14.4 16a2.14 2.14 0 0 1 2.133-2.133z"/><path d="M17.067 16a.533.533 0 1 1-1.066 0 .533.533 0 0 1 1.066 0z"/></svg>
